**kern	**kern	**dynam
*part1	*part1	*part1
*staff2	*staff1	*
*I"Piano	*	*
*clefF4	*clefG2	*
*k[b-e-]	*k[b-e-]	*
=1	=1	=1
(4DD	(4c#X 4en 4g 4a#X	.
4D	4d 4f#X 4bn	.
4DD)	4cn) 4f# 4an	.
=	=	=
2.D 2.A 2.c	(2e-X 2g	[ sf >
.	4d) 4f#X	]
=	=	=
4r	4r	.
4r	4r	.
4D	8r	pp
.	8d 8dd	.
=	=	=
2BB-X	8r	.
.	4.B-X 4.b-X	.
4GG	8r	.
.	8G 8g	.
*	*clefF4	*
=	=	=
2DD	8r	.
.	4.D 4.d	.
4BBB-	8r	.
.	8BB- 8B-	.
=	=	=
2.GGG 2.GG	4BB- 4D 4G	p
.	4BB- 4D 4G	.
.	[4BB- [4D [4G	.
=	=	=
2GGG 2GG	2BB-] 2D] 2G]	]
4r	4r	.
=	=	=
*-	*-	*-
!!!system-decoration: {(s1,s2)}
